X:1
T:97
L:1/8
M:5/8
K:Gmin
V:1 treble nm="Piano" snm="Pno."
V:1
 Bc d d2 | BA G G2 | AB !breath!A3 | AB c c2 | BA F D2 | GG G3 | GA B B2 | AG F =E2 | %8
 =EE !breath!C3 | =EF G G2 | FF =E E2 | DD D3 |] %12

